X:1
T:Title
%%score { ( 1 4 ) | ( 2 3 ) }
L:1/8
Q:1/4=120
M:4/4
K:F
V:1 treble nm="Grand Piano"
V:4 treble 
V:2 bass 
V:3 bass 
V:1
 A4 B3 B | A6 F2 | [FA]2 G2 F2 E2 | F4 C4 | c4 c2 c2 | c6 c2 | [Ge]2 [Bd]2 [Ac]2 [GB]2 | [FA]6 z2 | %8
w: Charles~H.~Gabriel * *||||||||
 [Fc]4 [Ec]3 [Gc] | [Fc]6 [Fc]2 | [^Fd]2 [DAc]2 [DGB]2 [CDA]2 | [B,DG]4 [G,DF]4 | %12
w: ||||
 [G,CE]4 [F,CF]2 [CEG]2 | [CFA]4 [DFB]4 | [CFA]2 [B,CG]2 [A,CF]2 [G,CE]2 | [A,CF]6 z2 | %16
w: ||||
 [Fc]4 [Ec]3 [Gc] | [Fc]6 [Fc]2 | [^Fd]4 [DAd]3 [DAd] | [DBd]6 z2 | [Ge]4 [Ae]2 [Be]2 | %21
w: |||||
 [Af]4 [CAc]2 [CAc]2 | [CGB]2 [CGB]2 [CFA]2 [CFA]2 | [CEG]6 z2 | [CFA]4 [DFA]2 [_EFA]2 | %25
w: ||||
 [Dc]2 z2 z4 | [A,CF]3 [A,CF] [G,CE]2 [B,CE]2 | [A,CF]6 z2 |] %28
w: |||
V:2
 [F,CF]4 [F,DF]3 [F,DF] | [F,CF]6 [F,A,]2 | [C,C]2 [C,B,C]2 [C,A,C]2 [C,G,C]2 | [F,A,C]4 [F,A,]4 | %4
 [F,A,F]4 [F,A,F]2 [^F,A,_E]2 | [G,B,E]6 [CE]2 | [C,C]2 [C,C]2 [C,C]2 [C,C]2 | [F,C]6 z2 | %8
 [F,A,]4 [C,G,]3 [C,B,] | [F,A,]6 [F,A,]2 | [D,A,]2 ^F,2 G,2 A,,2 | B,,4 =B,,4 | %12
 C,2 B,,2 A,,2 C,2 | F,4 B,,4 | C,2 C,2 C,2 C,2 | F,,6 z2 | [F,A,]4 [C,G,]3 [C,B,] | %17
 [F,A,]6 [F,A,]2 | [D,A,]4 ^F,3 F, | G,6 z2 | C4 z4 | [F,C]4 F,2 F,2 | E,2 E,2 F,2 F,2 | C,6 z2 | %24
 F,2 _E,2 D,2 C,2 | z2 G,,2 A,,2 B,2 | C,3 C, C,2 C,2 | F,,6 z2 |] %28
V:3
 x8 | x8 | x8 | x8 | x8 | x8 | x8 | x8 | x8 | x8 | x8 | x8 | x8 | x8 | x8 | x8 | x8 | x8 | x8 | %19
 x8 | z2 B,2 [A,C]2 [G,C]2 | x8 | x8 | z2 B,,2 A,,2 G,,2 | x8 | B,,8 | x8 | x8 |] %28
V:4
 x8 | x8 | x8 | x8 | x8 | x8 | x8 | x8 | x8 | x8 | x8 | x8 | x8 | x8 | x8 | x8 | x8 | x8 | x8 | %19
 x8 | x8 | x8 | x8 | x8 | x8 | F2- [^CFB]2 [=CFA]2 [DG]2 | x8 | x8 |] %28

